X:4099
T:Mazurka des Combrailles
O:england
S:J. Blanchard
M:3/4
L:1/8
K:G
B cd|e3 g gg|d3 e =fe|de dc BA|B2 GB cd|\
e3 g gg|d3 e =fe|de dc BA|1 G3:|2 G6||
|:B2 BA Bc|d=f dc Bc|d=f dc BA|B2G4|\
B2 BA Bc|d=f dc Bc|d=f dc BA|1 G6:|2 G3||


